assets/images/line_share.svg

<svg fill="none" height="40" viewBox="0 0 40 40" width="40" xmlns="http://www.w3.org/2000/svg"><rect fill="#000" height="39" rx="4.5" stroke="#000" width="39" x=".5" y=".5"/><g fill="#f9f9fa"><path d="m16.067 14.3271c-.4182 0-.7555.3373-.7555.7555v5.801c0 .4182.3373.7555.7555.7555s.7555-.3373.7555-.7555v-5.801c0-.4182-.3373-.7555-.7555-.7555z"/><path d="m22.9074 14.3271c-.4182 0-.7554.3373-.7554.7555v3.4671l-2.7252-3.7504c-.1888-.2698-.5396-.3777-.8499-.2698s-.5261.3912-.5261.715v5.6391c0 .4182.3373.7555.7555.7555s.7554-.3373.7554-.7555v-3.3052l2.7252 3.7504c.1484.2024.3777.3103.6071.3103.0809 0 .1618-.0135.2293-.0405.3103-.1079.5261-.3912.5261-.715v-5.801c.0135-.4182-.3237-.7555-.742-.7555z"/><path d="m13.9498 20.1417h-2.0101v-5.0455c0-.4182-.3373-.7555-.7555-.7555s-.7555.3373-.7555.7555v5.801c0 .4182.3373.7555.7555.7555h2.7656c.4182 0 .7555-.3373.7555-.7555s-.3508-.7555-.7555-.7555z"/><path d="m35.8044 0h-31.62228c-2.30691 0-4.18212 1.87521-4.18212 4.18212v31.62228c0 2.3069 1.87521 4.1956 4.18212 4.1956h31.62228c2.3069 0 4.1956-1.8752 4.1956-4.1956v-31.62228c-.0135-2.30691-1.8887-4.18212-4.1956-4.18212zm-2.5498 25.8752c-2.064 2.5632-11.1163 8.715-13.2344 9.9697-.8634.5126-1.9561-.108-1.9561-1.1198v-3.1298c-5.059-.2024-14.11132-4.6813-14.11132-13.3963 0-9.07927 9.07922-13.49074 16.01352-13.49074 7.5008 0 16.0404 4.97808 16.0404 13.40974.0135 2.3744-.6745 5.1805-2.7521 7.7572z"/><path d="m29.1807 20.0067h-2.9949v-1.3895h2.3339c.4182 0 .7554-.3373.7554-.7555s-.3372-.7555-.7554-.7555h-2.3339v-1.3895h2.8735c.4182 0 .7555-.3373.7555-.7555s-.3373-.7555-.7555-.7555h-3.629c-.4182 0-.7555.3373-.7555.7555v2.9005 2.9005c0 .4182.3373.7555.7555.7555h3.7504c.4182 0 .7555-.3373.7555-.7555s-.3373-.7555-.7555-.7555z"/></g></svg>

<svg width="40" height="40" viewBox="0 0 40 40" fill="none" xmlns="http://www.w3.org/2000/svg">
<rect x="0.5" y="0.5" width="39" height="39" rx="4.5" fill="black" stroke="black"/>
<path d="M16.067 14.3271C15.6488 14.3271 15.3115 14.6644 15.3115 15.0826V20.8836C15.3115 21.3018 15.6488 21.6391 16.067 21.6391C16.4852 21.6391 16.8225 21.3018 16.8225 20.8836V15.0826C16.8225 14.6644 16.4852 14.3271 16.067 14.3271Z" fill="#F9F9FA"/>
<path d="M22.9074 14.3271C22.4892 14.3271 22.152 14.6644 22.152 15.0826V18.5497L19.4268 14.7993C19.238 14.5295 18.8872 14.4216 18.5769 14.5295C18.2666 14.6374 18.0508 14.9207 18.0508 15.2445V20.8836C18.0508 21.3018 18.3881 21.6391 18.8063 21.6391C19.2245 21.6391 19.5617 21.3018 19.5617 20.8836V17.5784L22.2869 21.3288C22.4353 21.5312 22.6646 21.6391 22.894 21.6391C22.9749 21.6391 23.0558 21.6256 23.1233 21.5986C23.4336 21.4907 23.6494 21.2074 23.6494 20.8836V15.0826C23.6629 14.6644 23.3257 14.3271 22.9074 14.3271Z" fill="#F9F9FA"/>
<path d="M13.9498 20.1417H11.9397V15.0962C11.9397 14.678 11.6024 14.3407 11.1842 14.3407C10.766 14.3407 10.4287 14.678 10.4287 15.0962V20.8972C10.4287 21.3154 10.766 21.6527 11.1842 21.6527H13.9498C14.368 21.6527 14.7053 21.3154 14.7053 20.8972C14.7053 20.479 14.3545 20.1417 13.9498 20.1417Z" fill="#F9F9FA"/>
<path d="M35.8044 0H4.18212C1.87521 0 0 1.87521 0 4.18212V35.8044C0 38.1113 1.87521 40 4.18212 40H35.8044C38.1113 40 40 38.1248 40 35.8044V4.18212C39.9865 1.87521 38.1113 0 35.8044 0ZM33.2546 25.8752C31.1906 28.4384 22.1383 34.5902 20.0202 35.8449C19.1568 36.3575 18.0641 35.7369 18.0641 34.7251V31.5953C13.0051 31.3929 3.95278 26.914 3.95278 18.199C3.95278 9.11973 13.032 4.70826 19.9663 4.70826C27.4671 4.70826 36.0067 9.68634 36.0067 18.118C36.0202 20.4924 35.3322 23.2985 33.2546 25.8752Z" fill="#F9F9FA"/>
<path d="M29.1807 20.0067H26.1858V18.6172H28.5197C28.9379 18.6172 29.2751 18.2799 29.2751 17.8617C29.2751 17.4435 28.9379 17.1062 28.5197 17.1062H26.1858V15.7167H29.0593C29.4775 15.7167 29.8148 15.3794 29.8148 14.9612C29.8148 14.543 29.4775 14.2057 29.0593 14.2057H25.4303C25.0121 14.2057 24.6748 14.543 24.6748 14.9612V17.8617V20.7622C24.6748 21.1804 25.0121 21.5177 25.4303 21.5177H29.1807C29.5989 21.5177 29.9362 21.1804 29.9362 20.7622C29.9362 20.344 29.5989 20.0067 29.1807 20.0067Z" fill="#F9F9FA"/>
</svg>
